svg/color/stx.svg

<svg width="64" height="65" viewBox="0 0 64 65" fill="none" xmlns="http://www.w3.org/2000/svg">
<rect y="0.303711" width="64" height="64" rx="32" fill="#5546FF"/>
<rect x="0.5" y="0.803711" width="63" height="63" rx="31.5" stroke="#070B14" stroke-opacity="0.15"/>
<path d="M45.0563 49.1649L38.1677 38.3514H48.0601V34.2663H15.6195V38.3514H25.5119L18.6233 49.1649H23.7497L31.8398 36.469L39.9299 49.1649H45.0563ZM48.0601 30.3013V26.2162H38.3679L45.1765 15.5228H40.01L31.8398 28.4189L23.6696 15.5228H18.5031L25.3116 26.2162H15.6195V30.3414L48.0601 30.3013Z" fill="white"/>
</svg>

<svg xmlns="http://www.w3.org/2000/svg" width="64" height="65" fill="none" viewBox="0 0 64 65"><rect width="64" height="64" y=".304" fill="#5546FF" rx="32"/><rect width="63" height="63" x=".5" y=".804" stroke="#070B14" stroke-opacity=".15" rx="31.5"/><path fill="#fff" d="M45.056 49.165 38.168 38.35h9.892v-4.085H15.62v4.085h9.892l-6.889 10.814h5.127l8.09-12.696 8.09 12.696zM48.06 30.3v-4.085h-9.692l6.808-10.693H40.01l-8.17 12.896-8.17-12.896h-5.167l6.809 10.693H15.62v4.125z"/></svg>
